X: 1
T: the Ramnee Ceilidh   [G]
C: Gordon Duncan
M: 4/4
L: 1/8
R: reel
K: Gmaj
|:\
GEEG D2GA | BGcB ABGA | B2dB A2BA | G3A GEED |
GEEG D2GA | BGcB ABGA | B2dB A2BA |1 GEDE G3A :|2 GEDE GDEG ||
|:\
B3D EGA2 | -ADEG AGEG | B3D EGA2 | -ABcB AGEG |
B3D EGA2 | -ADEG AGEG | B2dB A2BA |1 GEDE GDEG :|2 GEDE G3A |]

%%sep 1 1 500

